assets/ios/swift/Icons.xcassets/endCall.imageset/endCall.svg

<svg width="24" height="24" viewBox="0 0 24 24" fill="none" xmlns="http://www.w3.org/2000/svg">
<path d="M2.7651 16.0201L0.295301 13.604C0.0984326 13.4072 0 13.1566 0 12.8524C0 12.5481 0.0984326 12.2975 0.295301 12.1007C1.81655 10.4541 3.58837 9.19239 5.61074 8.31544C7.63311 7.43848 9.76286 7 12 7C14.2371 7 16.3669 7.44295 18.3893 8.32886C20.4116 9.21477 22.1834 10.472 23.7047 12.1007C23.9016 12.2975 24 12.5481 24 12.8524C24 13.1566 23.9016 13.4072 23.7047 13.604L21.2349 16.0201C21.038 16.217 20.8098 16.3244 20.5503 16.3423C20.2908 16.3602 20.0537 16.2886 19.8389 16.1275L16.7248 13.7651C16.5817 13.6577 16.4743 13.5324 16.4027 13.3893C16.3311 13.2461 16.2953 13.085 16.2953 12.906V10.6354C15.5973 10.4028 14.8904 10.2283 14.1745 10.112C13.4586 9.99562 12 9.93745 12 9.93745C12 9.93745 10.5414 9.99562 9.8255 10.112C9.10962 10.2283 8.40268 10.4028 7.7047 10.6354L7.7047 12.906C7.7047 13.085 7.6689 13.2461 7.59731 13.3893C7.52573 13.5324 7.41834 13.6577 7.27517 13.7651L4.16107 16.1275C3.94631 16.2886 3.70917 16.3602 3.44966 16.3423C3.19016 16.3244 2.96197 16.217 2.7651 16.0201Z" fill="black"/>
</svg>

<svg xmlns="http://www.w3.org/2000/svg" width="24" height="24" fill="black" viewBox="0 0 24 24">
  <path d="m2.765 16.02-2.47-2.416A1.018 1.018 0 0 1 0 12.852c0-.304.098-.555.295-.751a15.64 15.64 0 0 1 5.316-3.786A15.89 15.89 0 0 1 12 7c2.237 0 4.367.443 6.39 1.329a15.977 15.977 0 0 1 5.315 3.772c.197.196.295.447.295.751 0 .305-.098.555-.295.752l-2.47 2.416a1.047 1.047 0 0 1-1.396.108l-3.114-2.363a1.067 1.067 0 0 1-.322-.376 1.066 1.066 0 0 1-.108-.483v-2.27a13.593 13.593 0 0 0-2.12-.524C13.459 9.996 12 9.937 12 9.937s-1.459.059-2.175.175c-.715.116-1.422.29-2.12.523v2.271c0 .179-.036.34-.108.483a1.066 1.066 0 0 1-.322.376l-3.114 2.363a1.047 1.047 0 0 1-1.396-.107Z"/>
</svg>
